X: 62
T:Untitled. HA.061
M:6/4
L:1/4
Q:140
S:Henry Atkinson's original MS,Hartburn,N'umberland,1694.
O:England
A:Hartburn,Northumberland
H:1/4
Z:vmp.Chris Partington.Jan.2004
K:C
G|c>de (ge)a|"ii"g>fe def|e>dc (dA)c|"ii"B2(A/G/) G2G|!
cde (ge)a|g>fe def|"ii"e>dc (gd)f|"ii"e2(d/c/) c2:|!
|:c|c>dc (cG)"="B|A2(G/F/) F2"x"e|"x"e3 Ade|e2d d2e|!
(fa)f (ge)f|e>dc g2d|B>AG g(d/e/)f|"="e2(d/c/)c2:|]
